svgs/thin/face-expressionless.svg

<svg xmlns="http://www.w3.org/2000/svg" viewBox="0 0 512 512"><!--! Font Awesome Pro 6.4.0 by @fontawesome - https://fontawesome.com License - https://fontawesome.com/license (Commercial License) Copyright 2023 Fonticons, Inc. --><path d="M496 256A240 240 0 1 0 16 256a240 240 0 1 0 480 0zM0 256a256 256 0 1 1 512 0A256 256 0 1 1 0 256zm160 80H352c4.4 0 8 3.6 8 8s-3.6 8-8 8H160c-4.4 0-8-3.6-8-8s3.6-8 8-8zM128 200c0-4.4 3.6-8 8-8h80c4.4 0 8 3.6 8 8s-3.6 8-8 8H136c-4.4 0-8-3.6-8-8zm168-8h80c4.4 0 8 3.6 8 8s-3.6 8-8 8H296c-4.4 0-8-3.6-8-8s3.6-8 8-8z"/></svg>

<svg xmlns="http://www.w3.org/2000/svg" viewBox="0 0 512 512"><!--! Font Awesome Pro 6.3.0 by @fontawesome - https://fontawesome.com License - https://fontawesome.com/license (Commercial License) Copyright 2023 Fonticons, Inc. --><path d="M352 336C356.4 336 360 339.6 360 344C360 348.4 356.4 352 352 352H160C155.6 352 152 348.4 152 344C152 339.6 155.6 336 160 336H352zM128 200C128 195.6 131.6 192 136 192H216C220.4 192 224 195.6 224 200C224 204.4 220.4 208 216 208H136C131.6 208 128 204.4 128 200zM376 192C380.4 192 384 195.6 384 200C384 204.4 380.4 208 376 208H296C291.6 208 288 204.4 288 200C288 195.6 291.6 192 296 192H376zM512 256C512 397.4 397.4 512 256 512C114.6 512 0 397.4 0 256C0 114.6 114.6 0 256 0C397.4 0 512 114.6 512 256zM256 16C123.5 16 16 123.5 16 256C16 388.5 123.5 496 256 496C388.5 496 496 388.5 496 256C496 123.5 388.5 16 256 16z"/></svg>
